libs/ui/packages/crypto-icons/src/svg/jWBTC.svg

<svg width="24" height="24" viewBox="0 0 24 24" fill="none" xmlns="http://www.w3.org/2000/svg">
<path fill-rule="evenodd" clip-rule="evenodd" d="M3.29199 12.0015C3.29199 7.06 7.24127 3.0415 12.1284 3.0415C17.0155 3.0415 20.9648 7.06 20.9648 12.0015C20.9648 16.943 17.0155 20.9615 12.1284 20.9615C7.24127 20.9615 3.29199 16.943 3.29199 12.0015ZM12.1284 4.0415C7.80738 4.0415 4.29199 7.59836 4.29199 12.0015C4.29199 16.4047 7.80738 19.9615 12.1284 19.9615C16.4494 19.9615 19.9648 16.4047 19.9648 12.0015C19.9648 7.59836 16.4494 4.0415 12.1284 4.0415Z" fill="white"/>
<path fill-rule="evenodd" clip-rule="evenodd" d="M12.1272 5.39014C10.4275 5.39014 8.88 6.05173 7.71979 7.13788L7.03637 6.40785C8.37312 5.15644 10.162 4.39014 12.1272 4.39014C14.0925 4.39014 15.8813 5.15644 17.2181 6.40785L16.5347 7.13788C15.3744 6.05173 13.8269 5.39014 12.1272 5.39014ZM4.62109 12.0001C4.62109 10.0588 5.33879 8.2853 6.52054 6.94025L7.27178 7.60028C6.24533 8.76856 5.62109 10.3092 5.62109 12.0001C5.62109 13.691 6.24533 15.2317 7.27178 16.4L6.52054 17.06C5.33879 15.715 4.62109 13.9415 4.62109 12.0001ZM18.6334 12.0001C18.6334 10.3092 18.0091 8.76856 16.9827 7.60028L17.7339 6.94025C18.9157 8.2853 19.6334 10.0588 19.6334 12.0001C19.6334 13.9415 18.9157 15.715 17.7339 17.06L16.9827 16.4C18.0091 15.2317 18.6334 13.691 18.6334 12.0001ZM12.1272 18.6101C13.8269 18.6101 15.3744 17.9485 16.5347 16.8624L17.2181 17.5924C15.8813 18.8438 14.0925 19.6101 12.1272 19.6101C10.162 19.6101 8.37312 18.8438 7.03637 17.5924L7.71979 16.8624C8.88 17.9485 10.4275 18.6101 12.1272 18.6101Z" fill="white"/>
<path d="M13.1134 15.4217V16.8427H12.2507V15.4389H11.5577V16.8465H10.6927V15.4094H8.95361C9.00881 15.0594 9.06214 14.7203 9.11648 14.3752C9.32914 14.3752 9.53655 14.3781 9.74379 14.3744C9.95657 14.3706 10.0735 14.2481 10.0735 14.0344C10.0739 12.7763 10.0739 11.5182 10.0735 10.26C10.0735 10.006 9.88237 9.81176 9.62749 9.809C9.40609 9.80681 9.18466 9.80854 8.95717 9.80854V8.89025H10.7041V7.46924H11.5591V8.84384H12.2561V7.4726H13.1203V8.86037C13.3998 8.9137 13.6685 8.95575 13.9322 9.01801C14.2237 9.08689 14.4964 9.20432 14.732 9.39608C15.0168 9.6278 15.1697 9.93073 15.2146 10.2912C15.2503 10.5791 15.2383 10.863 15.1286 11.1362C15.0186 11.4103 14.8265 11.612 14.5737 11.7591C14.5498 11.773 14.526 11.787 14.4899 11.8082C14.5729 11.8341 14.6446 11.8545 14.7152 11.8786C15.1044 12.0115 15.423 12.2293 15.5977 12.618C15.6756 12.7915 15.7153 12.9748 15.7269 13.164C15.7497 13.5356 15.7111 13.8991 15.5673 14.2456C15.3656 14.7313 14.9823 15.0133 14.5011 15.1812C14.0787 15.3286 13.639 15.3795 13.1961 15.4133C13.1715 15.4152 13.1466 15.4184 13.1134 15.4217ZM11.5817 13.421C11.5817 13.7155 11.5833 14.0101 11.5803 14.3046C11.5797 14.3671 11.5979 14.3889 11.661 14.3862C12.0555 14.369 12.4511 14.3659 12.8445 14.3352C13.1247 14.3134 13.3968 14.2376 13.6396 14.0852C14.1425 13.7693 14.1421 13.0732 13.6396 12.7549C13.4268 12.62 13.1887 12.5591 12.9441 12.5191C12.5153 12.4491 12.083 12.4689 11.6514 12.471C11.5855 12.4713 11.5808 12.5027 11.581 12.554C11.5823 12.8429 11.5817 13.132 11.5817 13.421ZM11.59 11.6219C11.9101 11.6088 12.2235 11.6025 12.5357 11.5809C12.763 11.5652 12.9843 11.5109 13.1897 11.4062C13.4638 11.2664 13.6143 11.0459 13.6111 10.7336C13.6079 10.4205 13.4654 10.1837 13.1796 10.0597C13.0045 9.98367 12.8142 9.93389 12.6255 9.90101C12.2846 9.8414 11.9389 9.86504 11.5898 9.87488V11.6221L11.59 11.6219Z" fill="white"/>
</svg>

<svg xmlns="http://www.w3.org/2000/svg" width="24" height="24" viewBox="0 0 24 24" fill="none"><path fill="#fff" fill-rule="evenodd" d="M3.292 12.002c0-4.942 3.95-8.96 8.836-8.96s8.837 4.018 8.837 8.96c0 4.941-3.95 8.96-8.837 8.96s-8.836-4.019-8.836-8.96m8.836-7.96c-4.32 0-7.836 3.556-7.836 7.96 0 4.403 3.515 7.96 7.836 7.96s7.837-3.557 7.837-7.96-3.516-7.96-7.837-7.96" clip-rule="evenodd"/><path fill="#fff" fill-rule="evenodd" d="M12.127 5.39c-1.7 0-3.247.662-4.407 1.748l-.684-.73a7.43 7.43 0 0 1 5.091-2.018c1.965 0 3.754.766 5.091 2.018l-.683.73a6.43 6.43 0 0 0-4.408-1.748M4.621 12c0-1.941.718-3.715 1.9-5.06l.75.66a6.64 6.64 0 0 0-1.65 4.4c0 1.691.624 3.232 1.65 4.4l-.75.66A7.64 7.64 0 0 1 4.62 12m14.012 0c0-1.69-.624-3.231-1.65-4.4l.75-.66a7.64 7.64 0 0 1 1.9 5.06 7.64 7.64 0 0 1-1.9 5.06l-.75-.66a6.64 6.64 0 0 0 1.65-4.4m-6.506 6.61c1.7 0 3.247-.662 4.408-1.748l.683.73a7.43 7.43 0 0 1-5.09 2.018 7.43 7.43 0 0 1-5.092-2.018l.684-.73a6.43 6.43 0 0 0 4.407 1.748" clip-rule="evenodd"/><path fill="#fff" d="M13.113 15.422v1.42h-.862V15.44h-.693v1.407h-.865V15.41h-1.74c.056-.35.11-.689.163-1.034.213 0 .42.003.628 0 .213-.004.33-.127.33-.34V10.26a.44.44 0 0 0-.447-.451q-.329-.002-.67 0V8.89h1.747V7.47h.855v1.374h.697V7.473h.864V8.86c.28.054.549.096.812.158.292.069.564.186.8.378.285.232.438.535.483.895.035.288.023.572-.086.845a1.25 1.25 0 0 1-.555.623l-.084.05c.083.025.155.046.225.07.39.133.708.35.883.739.078.173.117.357.129.546.023.372-.016.735-.16 1.082-.201.485-.585.767-1.066.935-.422.148-.862.199-1.305.232zm-1.531-2.001q.001.443-.002.884c0 .062.018.084.081.081.395-.017.79-.02 1.184-.05a1.7 1.7 0 0 0 .795-.25.775.775 0 0 0 0-1.331c-.213-.135-.451-.196-.696-.236-.429-.07-.861-.05-1.293-.048-.066 0-.07.032-.07.083zm.008-1.8c.32-.012.633-.019.946-.04.227-.016.448-.07.654-.175.274-.14.424-.36.421-.672s-.146-.55-.431-.674a2.5 2.5 0 0 0-.554-.159c-.341-.06-.687-.036-1.036-.026z"/></svg>
